polaris-icons/icons/FacebookMinor.svg

<svg xmlns="http://www.w3.org/2000/svg" viewBox="0 0 20 20"><path fill="#5C5F62" d="M10 3C6.13401 3 3 6.13401 3 10C3 13.3954 5.41742 16.2261 8.625 16.865V12.75H6.75V10.5782H8.625V8.92303C8.625 7.04009 9.72747 6 11.4143 6C12.2222 6 13.0673 6.14673 13.0673 6.14673V7.99564H12.1361C11.2188 7.99564 10.9327 8.57478 10.9327 9.16893V10.5782H12.9808L12.6534 12.75H10.9327V16.9384C14.3577 16.4824 17 13.5498 17 10C17 6.13401 13.866 3 10 3Z"/></svg>

<svg xmlns="http://www.w3.org/2000/svg" viewBox="0 0 20 20"><path fill="#5C5F62" d="M10 3a7 7 0 0 0-1.375 13.865v-4.115h-1.875v-2.172h1.875v-1.655c0-1.883 1.102-2.923 2.79-2.923.807 0 1.652.147 1.652.147v1.849h-.93c-.918 0-1.204.579-1.204 1.173v1.41h2.048l-.328 2.171h-1.72v4.188a7.001 7.001 0 0 0-.933-13.938Z"/></svg>
